X:1
T:Title
%%score [ ( 1 2 ) 3 ( 4 5 ) ( 6 7 ) ]
L:1/8
Q:1/4=120
M:2/4
K:F
V:1 treble nm="S."
V:2 treble 
V:3 treble nm="A."
V:4 treble-8 nm="T."
V:5 treble-8 
V:6 bass nm="B."
V:7 bass 
V:1
!mp!!mf!"^Anonymous mediaeval poem" F x4 |"^Very slow and quiet" G2 BA | c2 f2 | %3
w: I|saw a fair|mai- den|
w: That|same lord is|He that|
"^I saw a fair maiden" c2 EF | G3 G | (Ac)"^Peter Warlock""^(1894-1930)" BA | EF GB | (AA) GF | %8
w: sit- ten and|sing, She|lul * led a|lit- tle child, a|swee * te lord-|
w: made al- le|thing, Of|al- le lord- is|He is lord, of|al- le king- es|
 G4 |!p! (cd)!<(! c_e!<)! |!>(! d2!<(! B!>)!d!<)! |!>(! c2 A!>)!!<(!c | B2!<)!!>(! G2 | %13
w: ing.|Lul * lay, mine|li- king, my|dear son, mine|sweet- ing,|
w: king.|||||
 F!>)!!p! G2 B | A2 FA |"^dim." G2 G2 |!pp! c2 !fermata!F ::!f!!mf! F | (GG) BA | cc (ff) | cc EF | %21
w: Lul- lay, my|dear heart, mine|own dear|dar- ling.|There|was * mic- kle|mel- o- dy *|at that child- es|
w: ||||An-|gel- ys bright they|sung that night and|said- en to that|
 G4 | Ac BA | EF GB | (AA) GF | G4 |!p! (cd)!<(! c_e!<)! |!>(! d2!<(! B!>)!d!<)! | %28
w: birth,|All that were in|Hea- ven's bliss they|made * mic- kle|mirth,|Lul * lay, mine|li- king, my|
w: child:|sed be thou and|so be she that|is both meek and|mild."|||
!>(! c2 A!>)!!<(!c | B2!<)!!>(! G2 |!p! F!>)! G2 B | A2 FA |!>(! G2 G2 |1 c2!pp! !fermata!F!>)! :|2 %34
w: dear son, mine|sweet- ing,|Lul- lay, my|dear heart, mine|own dear|dar- ling.|
w: ||||||
!>(! c2!pp! !fermata!F2!>)! ||!mp! GG BA | c2 ff | cc EF | G4 |!<(! (Ac) BA!<)! |!<(! (EF) GB | %41
w: dar- ling.|5.~Pray we now to|that Child, and|to His mo- ther|dear,|Grant * them His|bles * sing that|
w: |||||||
 A2!<)! GF |!mf! G4 |!pp! (cd)!<(! c_e!<)! |!>(! d2!<(! B!>)!d!<)! |!>(! c2 A!>)!!<(!c | %46
w: now ma- ken|cheer,|Lul * lay, mine|lik- ing, my|dear son, mine|
w: |||||
!>(! B2!<)! G2!>)! |!pp!"^," F G2 B | A2 FA |"^ritenuto"!>(! G2 G2 | c2!ppp! !fermata!F2!>)! |] %51
w: sweet- ing,|Lul- lay, my|dear heart, mine|own dear|dar- ling.|
w: |||||
V:2
 x5 | x4 | x4 | x4 | x4 | x4 | x4 | x4 | x4 | x4 | x4 | x4 | x4 | x4 | x4 | x4 | x3 :: x | x4 | %19
w: |||||||||||||||||||
w: |||||||||||||||||||
 x4 | x4 | G3 G | x4 | x4 | x4 | x4 | x4 | x4 | x4 | x4 | x4 | x4 | x4 |1 x3 :|2 x4 || x4 | x4 | %37
w: ||||||||||||||||||
w: ||* Bles-||||||||||||||||
 x4 | x4 | x4 | x4 | x4 | x4 | x4 | x4 | x4 | x4 | x4 | x4 | x4 | x4 |] %51
w: ||||||||||||||
w: ||||||||||||||
V:3
!mp!!mf! C x4 | D2 EF | G2 A2 | B2 DD | (D2 E)E | (FA) GF | DD CG | (FF) ED | (F2 E2) | %9
w: I|saw a fair|mai- den|sit- ten and|sing, * She|lul * led a|lit- tle child, a|swee * te lord-|ing. *|
w: That|same lord is|He that|made al- le|thing, * Of|al- le lord- is|He is lord, of|al- le king- es|king. *|
!p! (AB)!<(! Ac!<)! |!>(! B2!<(! G!>)!B!<)! |!>(! A2 F!>)!!<(!A | G2!<)!!>(! !courtesy!=E2 | %13
w: Lul * lay, mine|li- king, my|dear son, mine|sweet- ing,|
w: ||||
 F!>)!!p! E2 G | (GE) DB, |"^dim." (CD) (FE) |!pp! F2 !fermata!F ::!f!!mf! C | (D!courtesy!=E) GF | %19
w: Lul- lay, my|dear * heart, mine|own * dear *|dar- ling.|There|was * mic- kle|
w: ||||An-|gel- ys bright they|
 AG (BA) | GF CB, | ((DCF))E | FF DC | DD CC | (FF) ED | (F2 E2) |!p! (AB)!<(! Ac!<)! | %27
w: mel- o- dy *|at that child- es|birth, * * *|All that were in|Hea- ven's bliss they|made * mic- kle|mirth, *|Lul * lay, mine|
w: sung that night and|said- en to that|child: * * "Bles-|sed be thou and|so be she that|is both meek and|mild." *||
!>(! B2!<(! G!>)!B!<)! |!>(! A2 F!>)!!<(!A | G2!<)!!>(! !courtesy!=E2 |!p! D!>)! E2 D | (FE) DC | %32
w: li- king, my|dear son, mine|sweet- ing,|Lul- lay, my|dear * heart, mine|
w: |||||
!>(! (CD) C2 |1 F2!pp! !fermata!F!>)! :|2!>(! F2!pp! !fermata!F2!>)! ||!mp! DE FF | (AG) BA | %37
w: own * dear|dar- ling.|dar- ling.|5.~Pray we now to|that * Child, and|
w: |||||
 GF CB, | (DCFE) |!<(! F2 DC!<)! |!<(! D2 CC | F2!<)! ED |!mf! (F2 E2) |!pp! (AB)!<(! Ac!<)! | %44
w: to His mo- ther|dear, * * *|Grant them His|bles- sing that|now ma- ken|cheer, *|Lul * lay, mine|
w: |||||||
!>(! B2!<(! G!>)!B!<)! |!>(! A2 F!>)!!<(!A |!>(! G2!<)! !courtesy!=E2!>)! |!pp!"^," D E2 D | %48
w: lik- ing, my|dear son, mine|sweet- ing,|Lul- lay, my|
w: ||||
 (FE) DC |!>(! (CD) C2 | F2!ppp! !fermata!F2!>)! |] %51
w: dear * heart, mine|own * dear|dar- ling.|
w: |||
V:4
!mp!!mf! x x2 x2 | x2 x2 | x2 x2 | x2 x2 | x2 x2 | x4 | x x x x | x x x x | x x x x | %9
"^primo tenore marcato"!p! f2!<(! ff!<)! | (g!>(!f)!<(! _e!>)!g!<)! | %11
 (f!>(!!courtesy!=e) d!>)!"^molto espr."!<(!f | (_e!<)!d) (c!>(!B) | A!>)!!p! x x2 | x4 | %15
"^dim." x4 |!pp! x2 !fermata!x ::!f!!mf! x | x4 | x4 | x4 | x2 x G | x4 | x4 | x4 | x4 | %26
"^marcato"!p! f2!<(! fg!<)! |!>(! (gf)!<(! _e!>)!g!<)! | %28
"^molto espr."!>(! (f!courtesy!=e) d!>)!!<(!f | (_e!<)!d)!>(! (cB) |!p! A!>)! x x2 | x4 |!>(! x4 |1 %33
 x2!pp! !fermata!x!>)! :|2!>(! !fermata!x4!>)! ||!mp! x4 | x4 | x4 | x4 |!<(! x4!<)! |!<(! x4 | %41
 x2!<)! x!mf!x | x4 |!pp!"^marcato" f2!<(! fg!<)! |!>(! (gf)!<(! _e!>)!g!<)! | %45
!>(! (f!courtesy!=e) d!>)!!<(!f | (_e!<)!d)!>(! (cB) |!pp!"^," A!>)! x x2 | x2 xx | %49
!>(!xxx!courtesy!x | x2!ppp! !fermata!x2!>)! |] %51
V:5
 A x4 | B2 GA | B2 c2 | d G2 A | (B2 G)G | (ce) _ed | BA Gd | (dc) BA | (Gfec) | (cd) c_e | %10
w: I|saw a fair|mai- den|sit- ten and|sing, * She|lul * led a|lit- tle child, a|swee * te lord-|ing. * * *|Lul * lay, mine|
w: That|same lord is|He that|made al- le|thing, * Of|al- le lord- is|He is lord, of|al- le king- es|king. * * *||
 (dc) Bd | (cB) Ac | (BA) (GF) | A =B2 d | c2 Ac | (BA) (Gc) | A2 A :: A | (BB) _ed | %19
w: li * king, my|dear * son, mine|sweet * ing, *|Lul- lay, my|dear heart, mine|own * dear *|dar- ling.|There|was * mic- kle|
w: |||||||An-|gel- ys bright they|
 f!courtesy!=e (dc) | BA GD | ((FEA))G | dc FF | BA GF | (dc) BA | (Gfec) | (cd) c_e | (dc) Bd | %28
w: mel- o- dy *|at that child- es|birth, * * *|All that were in|Hea- ven's bliss they|made * mic- kle|mirth, * * *|Lul * lay, mine|li * king, my|
w: sung that night and|said- en to that|child: * * Bles-|sed be thou and|so be she that|is both meek and|mild." * * *|||
 (cB) Ac | (BA) (GF) | A c2 f | c2 AB | (AG) (F!courtesy!=E) |1 A2 A :|2 A2!pp! A2 || Bc dd | %36
w: dear * son, mine|sweet * ing, *|Lul- lay, my|dear heart, mine|own * dear *|dar- ling.|dar- ling.|5.~Pray we now to|
w: ||||||||
 (fe) dc | BA GD | (FEAG) | (dc) FF | (BA) GF | (dc) BA | (Gfec) | (cd) c_e | (dc) Bd | (cB) Ac | %46
w: that * Child, and|to His mo- ther|dear, * * *|Grant * them His|bles * sing that|now * ma- ken|cheer, * * *|Lul * lay, mine|lik * ing, my|dear * son, mine|
w: ||||||||||
 (BA) (GF) | A c2 f | c2 AB | (AG) (F!courtesy!=E) | A2 A2 |] %51
w: sweet * ing, *|Lul- lay, my|dear heart, mine|own * dear *|dar- ling.|
w: |||||
V:6
!mp!!mf! F, x4 | F,2 F,F, | F, F,2 F,- | F, F,2 F, | F,3 F, | (F,F,) F,F, | F,F, _E,B,, | %7
w: I|saw a fair|mai- den sit|* ten and|sing, She|lul * led a|lit- tle child, a|
w: That|same lord is|He that made|* al- le|thing, Of|al- le lord- is|He is lord, of|
 (D,!courtesy!=E,) D,B,, | (C,2 C2) |!p! (A,B,)!<(! A,C!<)! | (B,!>(!A,)!<(! G,!>)!B,!<)! | %11
w: swee * te lord-|ing. *|Lul * lay, mine|li * king, my|
w: al- le king- es|king. *|||
 (A,!>(!G,) F,!>)!!<(!A, | (G,!<)!F,) (!courtesy!=E,!>(!D,) | D,!>)!!p! G,2 _E, | %14
w: dear * son, mine|sweet * ing, *|Lul- lay, my|
w: |||
 F,2 !courtesy!_B,_E,- |"^dim." E,B,, C,2 |!pp! F,,2 !fermata!F, ::!f!!mf! !courtesy!=E, | %18
w: dear heart, mine|* own dear|dar- ling.|There|
w: |||An-|
 (_E,D,) C,B,, | A,,A, (G,G,) | F,E, D,C, | ((B,,A,,D,))C, | B,,A,, G,,D, | G,F, _E,D, | %24
w: was * mic- kle|mel- o- dy *|at that child- es|birth, * * *|All that were in|Hea- ven's bliss they|
w: gel- ys bright they|sung that night and|said- en to that|child: * * Bles-|sed be thou and|so be she that|
 (C,D,) A,,B,, | (C,2 C2) |!p! (A,B,)!<(! A,C!<)! |!>(! (B,A,)!<(! G,!>)!B,!<)! | %28
w: made * mic- kle|mirth, *|Lul * lay, mine|li * king, my|
w: is both meek and|mild." *|||
!>(! (A,G,) F,!>)!!<(!A, | (G,!<)!F,)!>(! (!courtesy!=E,D,) |!p! D,!>)! C,2 B,, | F,2 B,_E,- | %32
w: dear * son, mine|sweet * ing, *|Lul- lay, my|dear heart, mine|
w: ||||
 E,!>(!B,, C,2 |1 F,,2!pp! !fermata!F,!>)! :|2!>(! F,,2!pp! !fermata!F,2!>)! || %35
w: * own dear|dar- ling.|dar- ling.|
w: |||
!mp! !courtesy!=E,D, C,B,, | (A,,A,) G,G, | F,E, D,C, | (B,,A,,D,C,) |!<(! (B,,A,,) G,,D,!<)! | %40
w: 5.~Pray we now to|that * Child, and|to His mo- ther|dear, * * *|Grant * them His|
w: |||||
!<(! (G,F,) _E,D, | (C,!<)!D,) A,,B,, |!mf! (C,2 C2) |!pp! (A,B,)!<(! A,C!<)! | %44
w: bles * sing that|now * ma- ken|cheer, *|Lul * lay, mine|
w: ||||
!>(! (B,A,)!<(! G,!>)!B,!<)! |"^This edition""^?""^Andrew Sims 2001"!>(! (A,G,) F,!>)!!<(!A, | %46
w: lik * ing, my|dear * son, mine|
w: ||
 (G,!<)!F,)!>(! (!courtesy!=E,D,) |!pp!"^," D,!>)! C,2 B,, | F,2 B,_E,- | E,!>(!B,, C,2 | %50
w: sweet * ing, *|Lul- lay, my|dear heart, mine|* own dear|
w: ||||
 F,,2!ppp! !fermata!F,2!>)! |] %51
w: dar- ling.|
w: |
V:7
 x5 | x4 | x4 | x4 | x4 | x4 | x4 | x4 | x4 | x4 | x4 | x4 | x4 | x4 | x4 | x4 | x3 :: x | x4 | %19
 x4 | x4 | x2 x C, | x4 | x4 | x4 | x4 | x4 | x4 | x4 | x4 | x4 | x4 | x4 |1 x3 :|2 x4 || x4 | x4 | %37
 x4 | x4 | x4 | x4 | x4 | x4 | x4 | x4 | x4 | x4 | x4 | x4 | x4 | x4 |] %51

